svg/600/outlined/water_medium-fill.svg

<svg xmlns="http://www.w3.org/2000/svg" width="48" height="48" viewBox="0 -960 960 960"><path d="M232.087-469.392q48-25.304 102.804-39.739 54.805-14.435 108.544-14.435 31.13 0 61.478 4.283 30.348 4.282 58.478 12.282 51 14.566 78 19.283 27 4.717 57.435 4.717h30.652l36.174-331.912H194.348l37.739 345.521Zm36.696 403.523q-30.348 0-53.501-20.087-23.152-20.087-25.717-49.87l-83.696-758.87h748.827l-83.695 758.87Q767.87-106.043 745-85.956 722.13-65.87 691.782-65.87H268.783Z"/></svg>

<svg xmlns="http://www.w3.org/2000/svg" width="48" height="48" viewBox="0 -960 960 960"><path d="M232.09-469.39q48-25.31 102.8-39.74 54.81-14.44 108.54-14.44 31.14 0 61.48 4.29Q535.26-515 563.39-507q51 14.56 78 19.28 27 4.72 57.44 4.72h30.65l36.17-331.91h-571.3l37.74 345.52Zm36.69 403.52q-30.35 0-53.5-20.09-23.15-20.08-25.72-49.87L105.87-894.7H854.7L771-135.83q-3.13 29.79-26 49.87-22.87 20.09-53.22 20.09h-423Z"/></svg>
